src/nextgis_connect/icons/mActionOpenMap.svg

<?xml version="1.0" encoding="UTF-8" standalone="no"?>
<svg
   width="32"
   height="32"
   viewBox="0 0 32 32"
   fill="none"
   version="1.1"
   id="svg1"
   sodipodi:docname="mActionOpenMap.svg"
   inkscape:version="1.4 (e7c3feb100, 2024-10-09)"
   xmlns:inkscape="http://www.inkscape.org/namespaces/inkscape"
   xmlns:sodipodi="http://sodipodi.sourceforge.net/DTD/sodipodi-0.dtd"
   xmlns="http://www.w3.org/2000/svg"
   xmlns:svg="http://www.w3.org/2000/svg">
  <sodipodi:namedview
     id="namedview1"
     pagecolor="#505050"
     bordercolor="#eeeeee"
     borderopacity="1"
     inkscape:showpageshadow="0"
     inkscape:pageopacity="0"
     inkscape:pagecheckerboard="0"
     inkscape:deskcolor="#d1d1d1"
     showguides="true"
     inkscape:zoom="10.363636"
     inkscape:cx="17.850877"
     inkscape:cy="2.5570175"
     inkscape:window-width="1920"
     inkscape:window-height="1010"
     inkscape:window-x="0"
     inkscape:window-y="0"
     inkscape:window-maximized="1"
     inkscape:current-layer="svg1">
    <sodipodi:guide
       position="0,30"
       orientation="0,1"
       id="guide1"
       inkscape:locked="false"
       inkscape:label=""
       inkscape:color="rgb(0,134,229)" />
    <sodipodi:guide
       position="2,32"
       orientation="-1,0"
       id="guide2"
       inkscape:locked="false"
       inkscape:label=""
       inkscape:color="rgb(0,134,229)" />
    <sodipodi:guide
       position="30,0"
       orientation="-1,0"
       id="guide4"
       inkscape:locked="false"
       inkscape:label=""
       inkscape:color="rgb(0,134,229)" />
    <sodipodi:guide
       position="32,2"
       orientation="0,1"
       id="guide5"
       inkscape:locked="false"
       inkscape:label=""
       inkscape:color="rgb(0,134,229)" />
  </sodipodi:namedview>
  <g
     clip-path="url(#clip0_2685_138)"
     id="g1"
     transform="matrix(0.90106937,0,0,0.90106937,1.1534437,1.1531884)"
     style="stroke-width:1.1098">
    <path
       d="m 19.504,13.0191 0.3605,-0.1047 v -0.3755 -2.3653 l 3.337,-2.67288 v 4.62138 0.5 h 0.5 2.9144 0.5016 l -0.0016,-0.5017 c -0.0037,-1.1246 -0.0017,-2.25297 2e-4,-3.38274 0.0031,-1.83673 0.0062,-3.67729 -0.0146,-5.51228 l -3e-4,-0.02104 -0.002,-0.02095 C 27.0144,2.29826 26.3615,1.74438 25.6597,1.56649 24.9819,1.39471 24.1678,1.54732 23.6346,2.14898 L 17.939,6.72356 C 17.2215,6.15631 16.5042,5.57848 15.7848,4.99896 14.4337,3.91055 13.0751,2.81621 11.6941,1.77488 L 11.6553,1.74558 11.6115,1.72431 C 10.7777,1.31955 10.0517,1.55685 9.47672,1.92198 9.19764,2.09919 8.93828,2.31525 8.70831,2.5111 8.67717,2.53762 8.64664,2.5637 8.61666,2.58932 8.41575,2.76096 8.23914,2.91184 8.06366,3.03675 L 8.04994,3.04651 8.03691,3.05717 C 7.29186,3.66698 6.53114,4.27283 5.76737,4.8811 4.50529,5.88624 3.23489,6.89801 2.0131,7.9452 L 1.94951,7.9997 1.90715,8.07195 C 1.55831,8.66696 1.49923,9.3078 1.50001,9.88214 c 2.8e-4,0.20866 0.00895,0.42346 0.01714,0.62626 0.00296,0.0732 0.00585,0.1448 0.00826,0.214 0.00942,0.2703 0.01242,0.5192 -0.00708,0.7552 l -0.00174,0.021 4e-5,0.0211 c 0.00401,2.3043 0.00191,4.6108 -1.9e-4,6.918 -0.00342,3.754 -0.00685,7.5102 0.01606,11.2627 l 1.7e-4,0.027 0.00306,0.0268 c 0.09933,0.8693 0.74168,1.4293 1.44088,1.6138 0.67908,0.1792 1.49167,0.0268 2.02529,-0.5924 0.88288,-0.7202 1.77997,-1.4356 2.67958,-2.1531 1.50039,-1.1966 3.00782,-2.3987 4.46792,-3.6377 l 0.0628,-0.0533 0.0424,-0.0706 c 0.3831,-0.6384 0.4169,-1.3306 0.4065,-1.93 -0.0026,-0.1538 -0.0078,-0.2997 -0.0127,-0.4393 -0.0155,-0.4422 -0.0289,-0.8223 0.0449,-1.1974 l 0.005,-0.025 0.0023,-0.0254 c 0.352,-3.793 3.1495,-7.1635 6.8034,-8.2247 z m 11.0952,20.3342 0.3537,0.3543 0.3538,-0.3543 2.0471,-2.0496 0.3529,-0.3533 -0.3529,-0.3534 -4.4299,-4.4352 C 31.0072,22.8 29.9324,17.985 26.5965,15.8354 23.3278,13.5057 18.391,14.3476 16.0712,17.6296 c -2.4669,3.1519 -1.899,8.1318 1.2867,10.6021 2.4152,2.0392 6.1093,2.3456 8.8105,0.6854 z m -8.3171,-7.2451 -0.0106,-10e-5 -0.0106,4e-4 c -1.1778,0.0425 -2.2772,-0.5632 -3.0019,-1.4996 -0.7246,-0.9364 -1.0362,-2.154 -0.701,-3.286 l 0.005,-0.0169 0.0038,-0.0171 c 0.2535,-1.1466 1.1077,-2.0594 2.1868,-2.5307 1.079,-0.4712 2.3269,-0.4765 3.338,0.1201 l 0.0151,0.009 0.0158,0.0078 c 1.0479,0.5226 1.7258,1.57 1.9229,2.73 0.1972,1.1599 -0.0965,2.3718 -0.9146,3.2108 l -0.0071,0.0073 -0.0068,0.0076 c -0.7128,0.7932 -1.7707,1.2641 -2.8348,1.2574 z M 8.76802,7.50071 V 22.7552 L 5.431,25.4282 V 10.1736 Z"
       fill="#7597c6"
       stroke="#284161"
       id="path1"
       style="fill-rule:nonzero;stroke:#284161;stroke-width:1.1098;stroke-opacity:1;fill:#6c97c3;fill-opacity:1" />
  </g>
  <defs
     id="defs1">
    <clipPath
       id="clip0_2685_138">
      <rect
         width="33"
         height="33"
         fill="#ffffff"
         id="rect1"
         x="0"
         y="0" />
    </clipPath>
  </defs>
</svg>

<svg width="33" height="33" viewBox="0 0 33 33" fill="none" xmlns="http://www.w3.org/2000/svg">
<g clip-path="url(#clip0_2685_138)">
<path d="M19.504 13.0191L19.8645 12.9144V12.5389V10.1736L23.2015 7.50072V12.1221V12.6221H23.7015H26.6159H27.1175L27.1159 12.1204C27.1122 10.9958 27.1142 9.86743 27.1161 8.73766C27.1192 6.90093 27.1223 5.06037 27.1015 3.22538L27.1012 3.20434L27.0992 3.18339C27.0144 2.29826 26.3615 1.74438 25.6597 1.56649C24.9819 1.39471 24.1678 1.54732 23.6346 2.14898L17.939 6.72356C17.2215 6.15631 16.5042 5.57848 15.7848 4.99896C14.4337 3.91055 13.0751 2.81621 11.6941 1.77488L11.6553 1.74558L11.6115 1.72431C10.7777 1.31955 10.0517 1.55685 9.47672 1.92198C9.19764 2.09919 8.93828 2.31525 8.70831 2.5111C8.67717 2.53762 8.64664 2.5637 8.61666 2.58932C8.41575 2.76096 8.23914 2.91184 8.06366 3.03675L8.04994 3.04651L8.03691 3.05717C7.29186 3.66698 6.53114 4.27283 5.76737 4.8811C4.50529 5.88624 3.23489 6.89801 2.0131 7.9452L1.94951 7.9997L1.90715 8.07195C1.55831 8.66696 1.49923 9.3078 1.50001 9.88214C1.50029 10.0908 1.50896 10.3056 1.51715 10.5084C1.52011 10.5816 1.523 10.6532 1.52541 10.7224C1.53483 10.9927 1.53783 11.2416 1.51833 11.4776L1.51659 11.4986L1.51663 11.5197C1.52064 13.824 1.51854 16.1305 1.51644 18.4377C1.51302 22.1917 1.50959 25.9479 1.5325 29.7004L1.53267 29.7274L1.53573 29.7542C1.63506 30.6235 2.27741 31.1835 2.97661 31.368C3.65569 31.5472 4.46828 31.3948 5.0019 30.7756C5.88478 30.0554 6.78187 29.34 7.68148 28.6225C9.18187 27.4259 10.6893 26.2238 12.1494 24.9848L12.2122 24.9315L12.2546 24.8609C12.6377 24.2225 12.6715 23.5303 12.6611 22.9309C12.6585 22.7771 12.6533 22.6312 12.6484 22.4916C12.6329 22.0494 12.6195 21.6693 12.6933 21.2942L12.6983 21.2692L12.7006 21.2438C13.0526 17.4508 15.8501 14.0803 19.504 13.0191ZM30.5992 33.3533L30.9529 33.7076L31.3067 33.3533L33.3538 31.3037L33.7067 30.9504L33.3538 30.597L28.9239 26.1618C31.0072 22.8 29.9324 17.985 26.5965 15.8354C23.3278 13.5057 18.391 14.3476 16.0712 17.6296C13.6043 20.7815 14.1722 25.7614 17.3579 28.2317C19.7731 30.2709 23.4672 30.5773 26.1684 28.9171L30.5992 33.3533ZM22.2821 26.1082L22.2715 26.1081L22.2609 26.1085C21.0831 26.151 19.9837 25.5453 19.259 24.6089C18.5344 23.6725 18.2228 22.4549 18.558 21.3229L18.563 21.306L18.5668 21.2889C18.8203 20.1423 19.6745 19.2295 20.7536 18.7582C21.8326 18.287 23.0805 18.2817 24.0916 18.8783L24.1067 18.8873L24.1225 18.8951C25.1704 19.4177 25.8483 20.4651 26.0454 21.6251C26.2426 22.785 25.9489 23.9969 25.1308 24.8359L25.1237 24.8432L25.1169 24.8508C24.4041 25.644 23.3462 26.1149 22.2821 26.1082ZM8.76802 7.50071V22.7552L5.431 25.4282V10.1736L8.76802 7.50071Z" fill="#7597C6" stroke="#284161"/>
</g>
<defs>
<clipPath id="clip0_2685_138">
<rect width="33" height="33" fill="white"/>
</clipPath>
</defs>
</svg>
